svgs/calyx_vpn.svg

<svg xmlns="http://www.w3.org/2000/svg" viewBox="0 0 192 192"><path d="M96 16.5s-47.624 8.154-64.5 8.154v81.538c0 37.63 57.352 69.308 64.5 69.308 7.148 0 64.5-31.678 64.5-69.063V24.898C143.624 24.776 96 16.5 96 16.5Zm26.181 88.265-46.948 40.484 14.084-27.845H70.285l23.769-44.846H75.91l12.688-34.98h31.552l-15.014 28.13h24.7l-29.606 39.139Z" fill="none" stroke="#000" stroke-width="12" stroke-linecap="round" stroke-linejoin="round"/></svg>

<svg
    xmlns="http://www.w3.org/2000/svg"
    viewBox="0 0 192 192"
    id="vector">
    <path
        id="path"
        d="M 96 16.5 C 96 16.5 48.376 24.654 31.5 24.654 L 31.5 106.192 C 31.5 143.822 88.852 175.5 96 175.5 C 103.148 175.5 160.5 143.822 160.5 106.437 L 160.5 24.898 C 143.624 24.776 96 16.5 96 16.5 Z M 122.181 104.765 L 75.233 145.249 L 89.317 117.404 L 70.285 117.404 L 94.054 72.558 L 75.91 72.558 L 88.598 37.578 L 120.15 37.578 L 105.136 65.708 L 129.836 65.708 L 100.23 104.847 Z"
        fill="none"
        stroke="#000000"
        stroke-width="12"
        stroke-linecap="round"
        stroke-linejoin="round"/>
</svg>
